X:652
T:Miss Johnston of Hilton
R:Strathspey
B:The Athole Collection
M:C
L:1/8
K:C
D<d d>B c>GE>C|D<d d>e f>de>c|f>de>c G>FE>C|D<d f>d e>^c d2:|
a<d f>d g<c e>g|a<d f>d a<d g>_b|a<d f>d g<c e>g|a<f g>e A^c d2|
a<d f>d g<c e>g|a<d f>d a<d f>d|g<_bf>a g<c e>g|a<f g>e A^c d2||

